source/assets/img/linktypes/pdf.svg

<?xml version="1.0" encoding="UTF-8" standalone="no"?>
<svg width="19px" height="18px" viewBox="0 0 19 18" version="1.1" xmlns="http://www.w3.org/2000/svg" xmlns:xlink="http://www.w3.org/1999/xlink">
    <g id="Page-1" stroke="none" stroke-width="1" fill="none" fill-rule="evenodd">
        <g id="srf-app-global-icons" transform="translate(-228.000000, -2479.000000)">
            <g id="pdf-icon" transform="translate(226.000000, 2479.000000)">
                <g transform="translate(2.000000, 0.000000)">
                    <polyline id="Stroke-1" stroke="#C91024" stroke-linecap="round" stroke-linejoin="round" points="5.5 7 5.5 0.5 14 0.5 18.5 5 18.5 17.5 5.5 17.5"></polyline>
                    <polyline id="Stroke-3" stroke="#C91024" stroke-linecap="round" stroke-linejoin="round" points="13.5 0.5 13.5 5.5 18.5 5.5"></polyline>
                    <path d="M0.417187497,9.2734375 L2.57734375,9.2734375 C2.91849129,9.2734375 3.21210814,9.29036441 3.45820312,9.32421875 C3.7042981,9.35807309 3.93281144,9.44596283 4.14375,9.58789062 C4.35468855,9.72981842 4.51419216,9.92252482 4.62226562,10.1660156 C4.73033908,10.4095064 4.784375,10.6640612 4.784375,10.9296875 C4.784375,11.458336 4.61445482,11.8821599 4.27460937,12.2011719 C3.93476392,12.5201839 3.3898475,12.6796875 2.63984375,12.6796875 L1.175,12.6796875 L1.175,15 L0.417187497,15 L0.417187497,9.2734375 Z M1.175,12 L2.64765625,12 C3.54870242,12 3.99921875,11.6510452 3.99921875,10.953125 C3.99921875,10.7239572 3.94062558,10.5214853 3.8234375,10.3457031 C3.70624941,10.169921 3.56237064,10.0605471 3.39179687,10.0175781 C3.2212231,9.97460916 2.96797043,9.953125 2.63203125,9.953125 L1.175,9.953125 L1.175,12 Z M5.8765625,9.2734375 L7.853125,9.2734375 C8.1994809,9.2734375 8.497655,9.29101545 8.74765625,9.32617188 C8.9976575,9.3613283 9.2365874,9.44726494 9.46445312,9.58398438 C9.69231885,9.72070381 9.8915356,9.90885297 10.0621094,10.1484375 C10.2326831,10.388022 10.3667964,10.6634099 10.4644531,10.9746094 C10.5621099,11.2858088 10.6109375,11.6627582 10.6109375,12.1054688 C10.6109375,12.949223 10.4104187,13.6425754 10.009375,14.1855469 C9.60833133,14.7285183 8.91823406,15 7.9390625,15 L5.8765625,15 L5.8765625,9.2734375 Z M6.634375,14.3203125 L7.8609375,14.3203125 C8.11093875,14.3203125 8.33424381,14.3046877 8.53085937,14.2734375 C8.72747494,14.2421873 8.9266917,14.1575528 9.12851562,14.0195312 C9.33033955,13.8815097 9.49765558,13.6549495 9.63046875,13.3398438 C9.76328191,13.024738 9.8296875,12.6080755 9.8296875,12.0898438 C9.8296875,11.803384 9.80429713,11.5358085 9.75351562,11.2871094 C9.70273412,11.0384102 9.60898506,10.81185 9.47226562,10.6074219 C9.33554619,10.4029938 9.17864672,10.2532557 9.0015625,10.1582031 C8.82447828,10.0631506 8.65195396,10.0052084 8.48398437,9.984375 C8.31601478,9.96354156 8.10052215,9.953125 7.8375,9.953125 L6.634375,9.953125 L6.634375,14.3203125 Z M15.6171875,9.953125 L12.5117188,9.953125 L12.5117188,11.7265625 L15.203125,11.7265625 L15.203125,12.40625 L12.5117188,12.40625 L12.5117188,15 L11.7539062,15 L11.7539062,9.2734375 L15.6171875,9.2734375 L15.6171875,9.953125 Z" id="PDF" fill="#C91024"></path>
                </g>
            </g>
        </g>
    </g>
</svg>

<svg width="19" height="18" viewBox="0 0 19 18" xmlns="http://www.w3.org/2000/svg"><g fill="none" fill-rule="evenodd"><path stroke="#C91024" stroke-linecap="round" stroke-linejoin="round" d="M5.5 7V.5H14L18.5 5v12.5h-13"/><path stroke="#C91024" stroke-linecap="round" stroke-linejoin="round" d="M13.5.5v5h5"/><path d="M.417 9.273h2.16c.341 0 .635.017.881.051.246.034.475.122.686.264.21.142.37.335.478.578.108.244.162.498.162.764 0 .528-.17.952-.51 1.271-.34.32-.884.479-1.634.479H1.175V15H.417V9.273zM1.175 12h1.473c.9 0 1.351-.349 1.351-1.047a1.06 1.06 0 0 0-.176-.607.734.734 0 0 0-.431-.328c-.17-.043-.424-.065-.76-.065H1.175V12zm4.702-2.727h1.976c.346 0 .645.018.895.053s.489.121.716.258c.228.137.428.325.598.564.17.24.305.515.402.827.098.31.147.688.147 1.13 0 .844-.2 1.538-.602 2.08-.4.544-1.09.815-2.07.815H5.877V9.273zm.757 5.047h1.227a4.3 4.3 0 0 0 .67-.047 1.46 1.46 0 0 0 .598-.253c.201-.138.369-.365.501-.68.133-.315.2-.732.2-1.25a4.01 4.01 0 0 0-.076-.803 1.89 1.89 0 0 0-.282-.68 1.335 1.335 0 0 0-.47-.449 1.483 1.483 0 0 0-.518-.174 5.438 5.438 0 0 0-.646-.03H6.634v4.366zm8.983-4.367h-3.105v1.774h2.691v.68h-2.691V15h-.758V9.273h3.863v.68z" fill="#C91024"/></g></svg>
